public/img/gold.svg

<svg width="26" height="26" viewBox="0 0 26 26" fill="none" xmlns="http://www.w3.org/2000/svg">
<g filter="url(#filter0_d)">
<circle cx="13" cy="12" r="8" fill="white"/>
</g>
<path d="M18.6001 10.4683L14.8907 9.68539L13.0001 6.39966V15.5044L16.461 17.0514L16.0593 13.2817L18.6001 10.4683Z" fill="#F9C800"/>
<path d="M11.1094 9.68576L7.4 10.4686L9.94083 13.2821L9.5391 17.0517L13 15.5047V6.40002L11.1094 9.68576Z" fill="#FFE060"/>
<defs>
<filter id="filter0_d" x="0" y="0" width="26" height="26" filterUnits="userSpaceOnUse" color-interpolation-filters="sRGB">
<feFlood flood-opacity="0" result="BackgroundImageFix"/>
<feColorMatrix in="SourceAlpha" type="matrix" values="0 0 0 0 0 0 0 0 0 0 0 0 0 0 0 0 0 0 127 0"/>
<feOffset dy="1"/>
<feGaussianBlur stdDeviation="2.5"/>
<feColorMatrix type="matrix" values="0 0 0 0 0.513291 0 0 0 0 0.541829 0 0 0 0 0.635371 0 0 0 0.24 0"/>
<feBlend mode="normal" in2="BackgroundImageFix" result="effect1_dropShadow"/>
<feBlend mode="normal" in="SourceGraphic" in2="effect1_dropShadow" result="shape"/>
</filter>
</defs>
</svg>

<svg width="26" height="26" fill="none" xmlns="http://www.w3.org/2000/svg"><g filter="url(#filter0_d)"><circle cx="13" cy="12" r="8" fill="#fff"/></g><path d="M18.6 10.468l-3.71-.783L13 6.4v9.104l3.461 1.547-.402-3.77 2.541-2.813z" fill="#F9C800"/><path d="M11.11 9.686l-3.71.783 2.54 2.813-.4 3.77L13 15.505V6.4l-1.89 3.286z" fill="#FFE060"/><defs><filter id="filter0_d" x="0" y="0" width="26" height="26" filterUnits="userSpaceOnUse" color-interpolation-filters="sRGB"><feFlood flood-opacity="0" result="BackgroundImageFix"/><feColorMatrix in="SourceAlpha" values="0 0 0 0 0 0 0 0 0 0 0 0 0 0 0 0 0 0 127 0"/><feOffset dy="1"/><feGaussianBlur stdDeviation="2.5"/><feColorMatrix values="0 0 0 0 0.513291 0 0 0 0 0.541829 0 0 0 0 0.635371 0 0 0 0.24 0"/><feBlend in2="BackgroundImageFix" result="effect1_dropShadow"/><feBlend in="SourceGraphic" in2="effect1_dropShadow" result="shape"/></filter></defs></svg>
